X: 1
T: All the Rage   (D)
C: Larry Unger 1989
M: 6/8
Z: Transcribed to abc by Mary Lou Knack
R: jig
K: D
d \
| "D"eff fed | eff f2d | "G"Bdd "D"Add | "Em7"fed "A7"e2d \
| "D"eff fed | eff f2a | "(G)"fed "A7"edc | "D"d3- d2 :|
|: d \
| "G"Bdd "D"Add | "G"Bdd "D"A2d | "G"dBd "Em7"ede | "D"faf "A7"e2d \
| "G"Bdd "D"Add | "G"Bdd "D"A2a | "(G)"fed "A7"edc | "D"d3- d2 :|

%%sep 1 1 500

